file/heinz.svg

<svg clip-rule="evenodd" fill-rule="evenodd" stroke-linejoin="round" stroke-miterlimit="1.41421" viewBox="0 0 560 400" xmlns="http://www.w3.org/2000/svg"><g fill="#f00" fill-rule="nonzero" transform="matrix(1.10621 0 0 1.10621 59.8689 32.9618)"><path d="m186.592 85.208c-40.13 1.15-79.735 8.53-111.955 20.819-4.801 1.851-14.182 5.807-17.901 7.602-.387.169-.914.759-1.164 1.292-.946 1.879-.697 3.142 2.662 13.833 2.081 6.621 3.109 10.268 2.998 10.772-.195 1.095-1.333 2.583-2.358 3.032-.499.224-2.471.896-4.438 1.542-3.832 1.235-14.127 5.19-15.987 6.173-1.666.842-2.333 2.02-2.138 3.786.141 1.461 17.096 59.062 17.847 60.688.25.505.831 1.234 1.33 1.63l.889.672h142.29c104.656 0 142.456-.083 142.9-.307 1.246-.646 2.135-1.798 2.69-3.452 2.026-6.229 17.263-58.387 17.399-59.508.141-1.264.058-1.518-.61-2.33-.416-.505-1.138-1.122-1.582-1.346-1.524-.786-12.126-4.855-15.681-6.033-1.969-.618-4.023-1.347-4.634-1.6-1.275-.534-2.359-2.048-2.442-3.423-.054-.925 5.216-19.528 5.938-20.958.502-1.01.111-3.114-.776-4.04-.416-.449-.914-.813-1.109-.813-.193 0-1.889-.702-3.773-1.573-30.916-14.168-70.41-23.23-112.898-25.923-5.884-.364-21.788-.842-26.643-.786-2.058.027-6.942.139-10.854.251zm46.18 29.769c.333.422.443.842.333 1.318-1.445 6.088-1.886 7.351-3.136 8.754-1.305 1.488-3.109 2.525-7.354 4.321-1.304.532-3.081 1.178-3.94 1.403-1.391.335-1.693.364-2.357 0-1.641-.842-1.749-2.862-.419-7.154 1.221-3.872 1.692-4.686 3.441-5.865 2.524-1.683 5.494-2.749 9.658-3.366 2.109-.337 3.164-.169 3.774.589zm-100.549 1.487c.443.253.889.729.972 1.066.112.393-1.611 7.126-4.414 17.368-2.525 9.202-4.605 16.861-4.605 17.03 0 .225 2.026.31 7.048.31h7.051l.112-.646c.083-.337 1.664-6.229 3.521-13.103 2.694-10.016 3.608-12.99 4.608-15.066 1.416-2.891 3.414-5.304 5.382-6.481l1.277-.758 7.188-.084c3.941-.056 7.354-.027 7.604.084.333.112.195.42-.692 1.347-2.915 3.03-5.744 9.229-8.825 19.303-2.055 6.678-11.074 42.199-11.186 44.021-.139 2.385.224 3.51 1.748 5.303l1.277 1.516-.638.645c-1.777 1.768-6.466 3.787-10.63 4.574-2.662.504-8.159.868-8.878.588-1-.391-1.582-1.769-1.558-3.787 0-2.021.225-2.918 4.639-19.558 1.748-6.591 3.161-12.091 3.161-12.261 0-.225-2.219-.307-7.02-.307h-7.021l-2.001 6.929c-2.691 9.288-4.024 12.065-7.604 15.937-3.497 3.815-14.875 10.27-22.424 12.739-4.884 1.599-6.216 1.822-10.686 1.851-4.634 0-5.635-.224-9.159-2.073-5.965-3.116-11.404-12.992-11.96-21.718-.25-4.041.137-5.892 1.47-7.1 1.47-1.316 6.549-3.814 10.323-5.078 4.136-1.373 3.916-1.685 3.72 5.359-.112 4.238-.054 5.947.304 8.163.917 5.555 3.193 11.001 5.635 13.386 2.25 2.215 6.44 3.419 9.879 2.914 3.999-.613 8.717-6.59 12.296-15.514.502-1.316 2.637-8.473 4.718-15.907 2.055-7.408 4.995-17.93 6.522-23.373 1.499-5.414 2.832-10.604 2.915-11.503.332-3.197-.609-3.758-6.552-3.955-4.8-.141-6.408.112-9.435 1.654-3.414 1.74-5.606 4.461-6.856 8.53-.387 1.345-.499 2.581-.47 6.031 0 5.023.167 5.641 2.912 11.504.889 1.908 1.527 3.591 1.416 3.676-.25.279-5.855 1.037-9.131 1.262-1.748.141-2.804.085-3.356-.142-1.278-.531-2.525-3.311-3.774-8.305-2.304-9.23.388-17.227 7.384-21.912 5.632-3.788 12.154-4.769 32.498-4.854 8.882-.027 10.602.029 11.295.395zm143.233 20.621c2.998.589 4.689 2.525 4.689 5.387 0 1.627-.527 3.731-5.274 20.708-5.104 18.346-5.41 19.894-3.994 21.604.415.477 1.222 1.122 1.803 1.429.613.31 1.084.646 1.084.786 0 1.63-13.85 7.044-18.039 7.044-1.665 0-3.081-.757-3.662-1.962-.918-1.825-.585-4.268 1.44-10.521.585-1.854 2.139-7.326 3.472-12.178 1.304-4.854 2.939-10.662 3.607-12.938.665-2.271 1.305-4.881 1.388-5.777.165-1.432.107-1.769-.42-2.442-.47-.59-.829-.757-1.689-.757-2.915 0-7.798 3.396-9.771 6.819-1.024 1.737-1.499 3.17-4.243 12.399-3.749 12.684-3.749 12.684-3.915 17.115-.083 2.583-.278 4.123-.499 4.518-.942 1.484-10.157 5.358-13.487 5.641-2.026.195-2.857-.281-3.637-2.105-.914-2.049-.611-5.104.971-10.018.694-2.156 2.998-9.623 5.106-16.552 3.663-12.147 3.805-12.711 3.829-15.151 0-2.329-.054-2.61-.802-3.731-.614-.898-.751-1.347-.557-1.656.138-.252 1.499-1.095 3.022-1.935 4.443-2.413 13.823-5.275 15.709-4.799 1.361.366 1.694 2.301.917 5.472-.668 2.637-.668 2.637 3.248-.056 3.912-2.666 9.156-4.994 13.292-5.863 3.83-.818 4.357-.874 6.412-.481zm-78.345 1.796c2.33 1.207 3.663 2.974 4.245 5.751 1.138 5.358-4.219 12.091-13.182 16.527-3.055 1.515-8.051 3.394-11.381 4.264-1.33.364-2.607.812-2.803 1.011-.192.197-.636 1.402-.997 2.689-.499 1.854-.64 3.029-.64 5.837-.028 3.985.224 4.8 1.942 6.737 1.638 1.82 2.832 2.298 6.188 2.467 3.471.166 5.023-.169 8.771-1.768 1.527-.674 2.887-1.121 3.026-.98.553.559-.307 1.904-3.11 4.739-5.272 5.36-9.131 7.297-16.428 8.19-3.276.396-5.83.17-8.549-.754-3.995-1.349-6.104-3.171-7.688-6.65-1.191-2.611-1.582-4.687-1.553-8.084.055-9.283 4.328-20.364 10.769-27.885 6.409-7.491 14.486-11.502 25.89-12.877 1.891-.223 4.167.085 5.5.786zm28.083-.393c.308.309.61.87.723 1.263.308 1.291-.972 6.368-5.386 21.322-5.27 17.927-5.605 19.164-5.605 21.213 0 1.432.111 1.769.834 2.606.474.506 1.358 1.151 1.97 1.403 1.084.451 1.111.505.696.981-.613.703-5.33 3.113-8.438 4.35-3.305 1.32-7.521 2.413-9.243 2.413-1.802 0-3.662-.927-4.218-2.103-1.192-2.559-.889-4.66 2.055-13.553 5.605-16.92 8.354-26.402 8.409-28.984.028-1.6-.084-1.993-.777-3.002-.415-.646-.722-1.347-.639-1.571.581-1.544 8.993-5.135 15.04-6.426 2.777-.613 3.915-.585 4.579.088zm98.328-.252c.806.449 1 .757.806 1.43-.083.309-6.104 8.839-13.434 18.969-10.544 14.588-13.265 18.545-13.209 19.106l.083.729 13.018.082c8.436.029 13.376-.025 14.069-.224 1.304-.364 2.693-1.713 4.164-4.015.997-1.568 1.08-1.821 1.08-3.758 0-2.355-.332-3.255-1.773-4.518-1.083-.955-2.471-1.291-4.746-1.122l-1.387.084.083-.981c.107-1.654 1.44-3.957 2.772-4.912 1.109-.754 1.416-.838 3.469-.838 3.666.025 6.386 1.569 7.606 4.265.581 1.259.664 1.796.527 2.946-.558 4.207-5.079 12.51-11.714 21.574-1.441 1.961-3.054 3.957-3.608 4.433l-.969.868h-20.953c-17.652 0-21.095-.054-21.899-.393-.526-.224-.972-.529-.972-.671 0-.312 2.444-3.874 4.247-6.229 2.691-3.479 6.744-8.332 13.517-16.133 10.822-12.488 12.487-14.675 12.487-16.301v-.954h-8.771-8.771l-1.471 1.542c-1.333 1.403-1.997 1.797-2.413 1.403-.332-.336 2.525-8.529 3.939-11.363.694-1.347 2.164-3.03 3.692-4.209 1.274-.981 2.886-1.095 16.511-1.095 9.61-.024 13.605.06 14.02.285z"/><path d="m183.038 144.801c-2.052 1.515-4.219 5.36-6.686 11.782-1.777 4.66-1.777 4.743-.029 4.545.748-.083 2.442-.505 3.746-.896 2.749-.844 2.525-.588 4.69-5.894 2.413-6.004 3.054-9.314 1.887-9.959-.971-.504-2.636-.336-3.608.422z"/></g></svg>

<?xml version="1.0" encoding="UTF-8" standalone="no"?>
<!DOCTYPE svg PUBLIC "-//W3C//DTD SVG 1.1//EN" "http://www.w3.org/Graphics/SVG/1.1/DTD/svg11.dtd">
<svg width="100%" height="100%" viewBox="0 0 560 400" version="1.1" xmlns="http://www.w3.org/2000/svg" xmlns:xlink="http://www.w3.org/1999/xlink" xml:space="preserve" xmlns:serif="http://www.serif.com/" style="fill-rule:evenodd;clip-rule:evenodd;stroke-linejoin:round;stroke-miterlimit:1.41421;">
    <g transform="matrix(1.10621,0,0,1.10621,59.8689,32.9618)">
        <path id="path10" d="M186.592,85.208C146.462,86.358 106.857,93.738 74.637,106.027C69.836,107.878 60.455,111.834 56.736,113.629C56.349,113.798 55.822,114.388 55.572,114.921C54.626,116.8 54.875,118.063 58.234,128.754C60.315,135.375 61.343,139.022 61.232,139.526C61.037,140.621 59.899,142.109 58.874,142.558C58.375,142.782 56.403,143.454 54.436,144.1C50.604,145.335 40.309,149.29 38.449,150.273C36.783,151.115 36.116,152.293 36.311,154.059C36.452,155.52 53.407,213.121 54.158,214.747C54.408,215.252 54.989,215.981 55.488,216.377L56.377,217.049L198.667,217.049C303.323,217.049 341.123,216.966 341.567,216.742C342.813,216.096 343.702,214.944 344.257,213.29C346.283,207.061 361.52,154.903 361.656,153.782C361.797,152.518 361.714,152.264 361.046,151.452C360.63,150.947 359.908,150.33 359.464,150.106C357.94,149.32 347.338,145.251 343.783,144.073C341.814,143.455 339.76,142.726 339.149,142.473C337.874,141.939 336.79,140.425 336.707,139.05C336.653,138.125 341.923,119.522 342.645,118.092C343.147,117.082 342.756,114.978 341.869,114.052C341.453,113.603 340.955,113.239 340.76,113.239C340.567,113.239 338.871,112.537 336.987,111.666C306.071,97.498 266.577,88.436 224.089,85.743C218.205,85.379 202.301,84.901 197.446,84.957C195.388,84.984 190.504,85.096 186.592,85.208ZM232.772,114.977C233.105,115.399 233.215,115.819 233.105,116.295C231.66,122.383 231.219,123.646 229.969,125.049C228.664,126.537 226.86,127.574 222.615,129.37C221.311,129.902 219.534,130.548 218.675,130.773C217.284,131.108 216.982,131.137 216.318,130.773C214.677,129.931 214.569,127.911 215.899,123.619C217.12,119.747 217.591,118.933 219.34,117.754C221.864,116.071 224.834,115.005 228.998,114.388C231.107,114.051 232.162,114.219 232.772,114.977ZM132.223,116.464C132.666,116.717 133.112,117.193 133.195,117.53C133.307,117.923 131.584,124.656 128.781,134.898C126.256,144.1 124.176,151.759 124.176,151.928C124.176,152.153 126.202,152.238 131.224,152.238L138.275,152.238L138.387,151.592C138.47,151.255 140.051,145.363 141.908,138.489C144.602,128.473 145.516,125.499 146.516,123.423C147.932,120.532 149.93,118.119 151.898,116.942L153.175,116.184L160.363,116.1C164.304,116.044 167.717,116.073 167.967,116.184C168.3,116.296 168.162,116.604 167.275,117.531C164.36,120.561 161.531,126.76 158.45,136.834C156.395,143.512 147.376,179.033 147.264,180.855C147.125,183.24 147.488,184.365 149.012,186.158L150.289,187.674L149.651,188.319C147.874,190.087 143.185,192.106 139.021,192.893C136.359,193.397 130.862,193.761 130.143,193.481C129.143,193.09 128.561,191.712 128.585,189.694C128.585,187.673 128.81,186.776 133.224,170.136C134.972,163.545 136.385,158.045 136.385,157.875C136.385,157.65 134.166,157.568 129.365,157.568L122.344,157.568L120.343,164.497C117.652,173.785 116.319,176.562 112.739,180.434C109.242,184.249 97.864,190.704 90.315,193.173C85.431,194.772 84.099,194.995 79.629,195.024C74.995,195.024 73.994,194.8 70.47,192.951C64.505,189.835 59.066,179.959 58.51,171.233C58.26,167.192 58.647,165.341 59.98,164.133C61.45,162.817 66.529,160.319 70.303,159.055C74.439,157.682 74.219,157.37 74.023,164.414C73.911,168.652 73.969,170.361 74.327,172.577C75.244,178.132 77.52,183.578 79.962,185.963C82.212,188.178 86.402,189.382 89.841,188.877C93.84,188.264 98.558,182.287 102.137,173.363C102.639,172.047 104.774,164.89 106.855,157.456C108.91,150.048 111.85,139.526 113.377,134.083C114.876,128.669 116.209,123.479 116.292,122.58C116.624,119.383 115.683,118.822 109.74,118.625C104.94,118.484 103.332,118.737 100.305,120.279C96.891,122.019 94.699,124.74 93.449,128.809C93.062,130.154 92.95,131.39 92.979,134.84C92.979,139.863 93.146,140.481 95.891,146.344C96.78,148.252 97.418,149.935 97.307,150.02C97.057,150.299 91.452,151.057 88.176,151.282C86.428,151.423 85.372,151.367 84.82,151.14C83.542,150.609 82.295,147.829 81.046,142.835C78.742,133.605 81.434,125.608 88.43,120.923C94.062,117.135 100.584,116.154 120.928,116.069C129.81,116.042 131.53,116.098 132.223,116.464ZM275.456,137.085C278.454,137.674 280.145,139.61 280.145,142.472C280.145,144.099 279.618,146.203 274.871,163.18C269.767,181.526 269.461,183.074 270.877,184.784C271.292,185.261 272.099,185.906 272.68,186.213C273.293,186.523 273.764,186.859 273.764,186.999C273.764,188.629 259.914,194.043 255.725,194.043C254.06,194.043 252.644,193.286 252.063,192.081C251.145,190.256 251.478,187.813 253.503,181.56C254.088,179.706 255.642,174.234 256.975,169.382C258.279,164.528 259.914,158.72 260.582,156.444C261.247,154.173 261.887,151.563 261.97,150.667C262.135,149.235 262.077,148.898 261.55,148.225C261.08,147.635 260.721,147.468 259.861,147.468C256.946,147.468 252.063,150.864 250.09,154.287C249.066,156.024 248.591,157.457 245.847,166.686C242.098,179.37 242.098,179.37 241.932,183.801C241.849,186.384 241.654,187.924 241.433,188.319C240.491,189.803 231.276,193.677 227.946,193.96C225.92,194.155 225.089,193.679 224.309,191.855C223.395,189.806 223.698,186.751 225.28,181.837C225.974,179.681 228.278,172.214 230.386,165.285C234.049,153.138 234.191,152.574 234.215,150.134C234.215,147.805 234.161,147.524 233.413,146.403C232.799,145.505 232.662,145.056 232.856,144.747C232.994,144.495 234.355,143.652 235.878,142.812C240.321,140.399 249.701,137.537 251.587,138.013C252.948,138.379 253.281,140.314 252.504,143.485C251.836,146.122 251.836,146.122 255.752,143.429C259.664,140.763 264.908,138.435 269.044,137.566C272.874,136.748 273.401,136.692 275.456,137.085ZM197.111,138.881C199.441,140.088 200.774,141.855 201.356,144.632C202.494,149.99 197.137,156.723 188.174,161.159C185.119,162.674 180.123,164.553 176.793,165.423C175.463,165.787 174.186,166.235 173.99,166.434C173.798,166.631 173.354,167.836 172.993,169.123C172.494,170.977 172.353,172.152 172.353,174.96C172.325,178.945 172.577,179.76 174.295,181.697C175.933,183.517 177.127,183.995 180.483,184.164C183.954,184.33 185.506,183.995 189.254,182.396C190.781,181.722 192.141,181.275 192.28,181.416C192.833,181.975 191.973,183.32 189.17,186.155C183.898,191.515 180.039,193.452 172.742,194.345C169.466,194.741 166.912,194.515 164.193,193.591C160.198,192.242 158.089,190.42 156.505,186.941C155.314,184.33 154.923,182.254 154.952,178.857C155.007,169.574 159.28,158.493 165.721,150.972C172.13,143.481 180.207,139.47 191.611,138.095C193.502,137.872 195.778,138.18 197.111,138.881ZM225.194,138.488C225.502,138.797 225.804,139.358 225.917,139.751C226.225,141.042 224.945,146.119 220.531,161.073C215.261,179 214.926,180.237 214.926,182.286C214.926,183.718 215.037,184.055 215.76,184.892C216.234,185.398 217.118,186.043 217.73,186.295C218.814,186.746 218.841,186.8 218.426,187.276C217.813,187.979 213.096,190.389 209.988,191.626C206.683,192.946 202.467,194.039 200.745,194.039C198.943,194.039 197.083,193.112 196.527,191.936C195.335,189.377 195.638,187.276 198.582,178.383C204.187,161.463 206.936,151.981 206.991,149.399C207.019,147.799 206.907,147.406 206.214,146.397C205.799,145.751 205.492,145.05 205.575,144.826C206.156,143.282 214.568,139.691 220.615,138.4C223.392,137.787 224.53,137.815 225.194,138.488ZM323.522,138.236C324.328,138.685 324.522,138.993 324.328,139.666C324.245,139.975 318.224,148.505 310.894,158.635C300.35,173.223 297.629,177.18 297.685,177.741L297.768,178.47L310.786,178.552C319.222,178.581 324.162,178.527 324.855,178.328C326.159,177.964 327.548,176.615 329.019,174.313C330.016,172.745 330.099,172.492 330.099,170.555C330.099,168.2 329.767,167.3 328.326,166.037C327.243,165.082 325.855,164.746 323.58,164.915L322.193,164.999L322.276,164.018C322.383,162.364 323.716,160.061 325.048,159.106C326.157,158.352 326.464,158.268 328.517,158.268C332.183,158.293 334.903,159.837 336.123,162.533C336.704,163.792 336.787,164.329 336.65,165.479C336.092,169.686 331.571,177.989 324.936,187.053C323.495,189.014 321.882,191.01 321.328,191.486L320.359,192.354L299.406,192.354C281.754,192.354 278.311,192.3 277.507,191.961C276.981,191.737 276.535,191.432 276.535,191.29C276.535,190.978 278.979,187.416 280.782,185.061C283.473,181.582 287.526,176.729 294.299,168.928C305.121,156.44 306.786,154.253 306.786,152.627L306.786,151.673L298.015,151.673L289.244,151.673L287.773,153.215C286.44,154.618 285.776,155.012 285.36,154.618C285.028,154.282 287.885,146.089 289.299,143.255C289.993,141.908 291.463,140.225 292.991,139.046C294.265,138.065 295.877,137.951 309.502,137.951C319.112,137.927 323.107,138.011 323.522,138.236Z" style="fill:rgb(255,0,0);fill-rule:nonzero;"/>
        <path id="path12" d="M183.038,144.801C180.986,146.316 178.819,150.161 176.352,156.583C174.575,161.243 174.575,161.326 176.323,161.128C177.071,161.045 178.765,160.623 180.069,160.232C182.818,159.388 182.594,159.644 184.759,154.338C187.172,148.334 187.813,145.024 186.646,144.379C185.675,143.875 184.01,144.043 183.038,144.801Z" style="fill:rgb(255,0,0);fill-rule:nonzero;"/>
    </g>
</svg>
